!!!CDT:
!!!PTL: Li diversi scherzi a una, a due, a tre et quattro voci. Libro quarto
!!!PPP: Rome
!!!PPR: Giovanni Battista Robletti
!!!PDT: 1615
!!!RISM: C 2219
!!!rime:
!!!AGN: Madrigal
!!!SCT: Tsg14001g
!!!SCA: Tsg14001g
!!!voices:
!!!COM: Cifra, Antonio
!!!OTL: Usciva omai dal molle e fresco grembo
**kern	**kern	**text	**kern	**text
*part3	*part2	*part2	*part1	*part1
*staff3	*staff2	*staff2	*staff1	*staff1
*I"[Basso continuo]	*I"[Canto II]	*	*I"[Canto I]	*
*I'Bc	*I'C II	*	*I'C I	*
*oclefF4	*oclefC1	*	*oclefC1	*
*clefF4	*clefG2	*	*clefG2	*
*k[b-]	*k[b-]	*	*k[b-]	*
*F:	*F:	*	*F:	*
*omet(C)	*omet(C)	*	*omet(C)	*
*M4/4	*M4/4	*	*M4/4	*
=1	=1	=1	=1	=1
!	!	!	!LO:TX:a:t=Aria del Gazzella. [Prima Stanza.]	!
2G	1r	.	2r	.
[2G	.	.	4r	.
.	.	.	4g	U-
=2	=2	=2	=2	=2
4G]	1r	.	4g	-sci-
4F	.	.	4a	-va ho-
4E	.	.	[2cc	-mai
4D	.	.	.	.
=3	=3	=3	=3	=3
2.C	4r	.	8cc]L	.
.	.	.	16b-y	.
.	.	.	16aJ	.
.	4cc	U-	16gL	.
.	.	.	16f	.
.	.	.	16e	.
.	.	.	16dJ	.
.	4cc	-sci-	4e	.
4BB-y	4dd	-va ho-	8fL	.
.	.	.	8gJ	.
=4	=4	=4	=4	=4
4AA	2ff	-mai	8aL	.
.	.	.	8b-yJ	.
4GG	.	.	8aL	.
.	.	.	8b-yJ	.
[2FF	8r	.	8cc	.
.	8cc	dal	8a	dal
.	8a	mol-	8f	mol-
.	8b-y	-le e	8g	-le e
=5	=5	=5	=5	=5
2FF]	8cc	fre-	4.a	fre-
.	8cc	-sco	.	.
.	[4dd	grem-	.	.
.	.	.	8d	-sco
2EE	8dd]L	.	2g	grem-
.	16cc	.	.	.
.	16b-yJ	.	.	.
.	16aL	.	.	.
.	16g	.	.	.
.	16f	.	.	.
.	16eJ	.	.	.
=6	=6	=6	=6	=6
2DD	2f#X	-bo	2a	-bo
[2D	2r	.	4r	.
.	.	.	4a	De
=7	=7	=7	=7	=7
4D]	2r	.	4f	la
4C	.	.	4e	gran
[2BB-y	4r	.	[2d	Ma-
.	4ffnXi	De	.	.
=8	=8	=8	=8	=8
4BB-]	4dd	la	4d]	.
4C	4cc	gran	4e	-de
4D	4b-y	Ma-	4f	sua
4E	4g	-dre	8eL	.
.	.	.	8dJ	.
=9	=9	=9	=9	=9
[1F	1a	sua	4c	.
.	.	.	8dL	.
.	.	.	8eJ	.
.	.	.	8fL	.
.	.	.	8gJ	.
.	.	.	8aL	.
.	.	.	8b-yJ	.
=10	=10	=10	=10	=10
2F]	2r	.	4cc	.
.	.	.	4a	la
2G	4dd	la	2d	not-
.	[4g	not-	.	.
=11	=11	=11	=11	=11
2C	4g_	.	4e	-te o-
.	8g]	.	2g	-scu-
.	8a	-te o-	.	.
2D	2a	-scu-	.	.
.	.	.	4f#X	.
=12	=12	=12	=12	=12
4GG	2g	-ra,	2g	-ra,
2G	.	.	.	.
.	4r	.	2r	.
4F#X	8dd	Au-	.	.
.	8cc	-re	.	.
=13	=13	=13	=13	=13
4G	4b-y	lie-	4r	.
4A	8a	-vi	8ff	Au-
.	8g	por-	8ee	-re
[2B-y	4f	-tan-	4dd	lie-
.	4f	-do	8dd	-vi
.	.	.	8cc	por-
=14	=14	=14	=14	=14
4B-]	2r	.	1b-y	-tan-
4A	.	.	.	.
4G	8r	.	.	.
.	8f	e,	.	.
4F	8gL	.	.	.
.	8aJ	.	.	.
=15	=15	=15	=15	=15
2.E-i	4b-y	.	2g	-do
.	8ccL	.	.	.
.	8ddJ	.	.	.
.	2ee-X	.	8r	.
.	.	.	8f	e
4E-i	.	.	8gL	.
.	.	.	8aJ	.
=16	=16	=16	=16	=16
4D	8r	.	8b-yL	.
.	8a	e	8ccJ	.
4C	8b-yL	.	8ddL	.
.	8ccJ	.	8ee-iJ	.
2BB-y	2dd	.	2ff	.
=17	=17	=17	=17	=17
2E-X	8g	lar-	4.b-y	lar-
.	8a	-go	.	.
.	2b-y	nem-	.	.
.	.	.	8g	-go
2F	.	.	2cc	nem-
.	4a	.	.	.
=18	=18	=18	=18	=18
2BB-y	1b-y	-bo	1b-y	-bo
2B-y	.	.	.	.
=19	=19	=19	=19	=19
2G	4r	.	2r	.
.	4g	Di	.	.
2c	8e	sua	4r	.
.	8c	ru-	.	.
.	[4cc	-gia-	4cc	Di
=20	=20	=20	=20	=20
2F	4cc]	.	8a	sua
.	.	.	8f	ru-
.	4a	-da	2ff	-gia-
2D	2r	.	.	.
.	.	.	4dd	-da
=21	=21	=21	=21	=21
2G	4r	.	2r	.
.	8g	pre-	.	.
.	8f	-ti-	.	.
[2C	4e-X	-o-	4r	.
.	4c	-sa e	8ee-X	pre-
.	.	.	8dd	-ti-
=22	=22	=22	=22	=22
4C]	(2.g	pu-	4cc	-o-
4C	.	.	4b-y	-sa e
2D	.	.	2a	pu-
.	4f#X)	.	.	.
=23	=23	=23	=23	=23
4GG	2g	-ra,	2g	-ra,
2G	.	.	.	.
.	2r	.	4r	.
4F#X	.	.	8dd	Au-
.	.	.	8cc	-re
=24	=24	=24	=24	=24
4G	4r	.	4b-y	lie-
4A	8ff	Au-	8a	-vi
.	8ee	-re	8g	por-
[2B-y	4dd	lie-	4f	-tan-
.	8dd	-vi	4f	-do
.	8cc	por-	.	.
=25	=25	=25	=25	=25
4B-]	1b-y	-tan-	2r	.
4A	.	.	.	.
4G	.	.	8r	.
.	.	.	8f	e,
4F	.	.	8gL	.
.	.	.	8aJ	.
=26	=26	=26	=26	=26
2.E-X	2g	-do	4b-y	.
.	.	.	8ccL	.
.	.	.	8ddJ	.
.	8r	.	2ee-i	.
.	8f	e	.	.
4E-i	8gL	.	.	.
.	8aJ	.	.	.
=27	=27	=27	=27	=27
4D	8b-yL	.	8r	.
.	8ccJ	.	8a	e
4C	8ddL	.	8b-yL	.
.	8ee-iJ	.	8ccJ	.
2BB-y	4ff	.	8ddL	.
.	.	.	8ee-iJ	.
.	4f	lar-	4ff	.
=28	=28	=28	=28	=28
2E-X	4g	-go	4.b-y	lar-
.	2b-y	nem-	.	.
.	.	.	8cc	-go
2F	.	.	2cc	nem-
.	4a	.	.	.
=29	=29	=29	=29	=29
2BB-y	1b-y	-bo	1b-y	-bo
2B-y	.	.	.	.
=30	=30	=30	=30	=30
2G	2r	.	4r	.
.	.	.	4g	Di
2c	4r	.	8e	sua
.	.	.	8c	ru-
.	4cc	Di	[4cc	-gia-
=31	=31	=31	=31	=31
2F	8a	sua	4cc]	.
.	8f	ru-	.	.
.	2ff	-gia	4a	-da
2D	.	.	2r	.
.	4dd	da	.	.
=32	=32	=32	=32	=32
2G	2r	.	4r	.
.	.	.	8g	pre-
.	.	.	8f	-ti-
[2C	4r	.	4e-X	-o-
.	8ee-X	pre-	4c	-sa e
.	8dd	-ti-	.	.
=33	=33	=33	=33	=33
2C]	4cc	-o-	2.g	pu-
.	4b-y	-sa e	.	.
2D	2a	pu-	.	.
.	.	.	4f#X	.
=34	=34	=34	=34	=34
1GG	1g	-ra.	1g	-ra.
=35||	=35||	=35||	=35||	=35||
!	!	!	!LO:TX:a:t=Seconda Stanza.	!
2G	1r	.	2r	.
[2G	.	.	4r	.
.	.	.	8bnX	E
.	.	.	8dd	sco-
=36	=36	=36	=36	=36
4G]	1r	.	4g	-ten-
4F	.	.	8a	-do
.	.	.	8b-i	del
4E	.	.	8ccL	vel
.	.	.	8ddJ	.
4D	.	.	8eeL	.
.	.	.	8ffJ	.
=37	=37	=37	=37	=37
2.C	4r	.	2gg	.
.	8e	E	.	.
.	8g	sco-	.	.
.	4c	-ten-	2r	.
4BB-y	8d	-do	.	.
.	8e	del	.	.
=38	=38	=38	=38	=38
4AA	8fL	vel	2r	.
.	8gJ	.	.	.
4GG	8aL	.	.	.
.	8b-yJ	.	.	.
[2FF	4cc	.	4r	.
.	[4f	l'hu-	[4a	l'hu-
=39	=39	=39	=39	=39
2FF]	8f]	.	8a]	.
.	8e	-mi-	8g	-mi-
.	4d	-do	4f	-do
2EE	4.d	lem-	2g	lem-
.	8c#i	.	.	.
=40	=40	=40	=40	=40
2DD	1d	-bo,	1f#X	-bo,
[2D	.	.	.	.
=41	=41	=41	=41	=41
4D]	4r	.	2r	.
4C	8g	Ne	.	.
.	8a	spar-	.	.
[2BB-y	4b-y	-ge-	4r	.
.	8b-y	-va i	8dd	Ne
.	8cc	fio-	8ee	spar-
=42	=42	=42	=42	=42
4BB-]	4dd	-ret-	4ff	-ge-
4C	4g	-ti,	8.ee	-va i
.	.	.	16dd	fio-
4D	4r	.	2dd	-ret-
4E	8f	<Ne	.	.
.	8g	spar-	.	.
=43	=43	=43	=43	=43
[1F	4a	-ge-	4cc	-ti,
.	8a	-va i	8f	<Ne
.	8b-y	fio-	8g	spar-
.	8ccL	-ret-	4a	-ge-
.	8ddJ	.	.	.
.	8ccL	.	8a	-va i
.	8b-yJ	.	8b-y	fio-
=44	=44	=44	=44	=44
2F]	8aL	.	2.cc	-ret-
.	8gJ	.	.	.
.	8fL	.	.	.
.	8eJ	.	.	.
2G	4.d	.	.	.
.	.	.	4b-y	-ti> e
.	8d	-ti> e	.	.
=45	=45	=45	=45	=45
2C	8e	la	4.a	la
.	8c	ver-	.	.
.	2g	-du-	.	.
.	.	.	8a	ver-
2D	.	.	2a	-du-
.	4f#X	.	.	.
=46	=46	=46	=46	=46
4GG	2g	-ra;	2g	-ra;
2G	.	.	.	.
.	2r	.	2r	.
4F#X	.	.	.	.
=47	=47	=47	=47	=47
4G	8r	.	2r	.
.	8dd	E i	.	.
4A	8ff	ven-	.	.
.	8ee	-ti-	.	.
[2B-y	4dd	-cel-	8r	.
.	.	.	8dd	E i
.	4b-y	-li,	8ff	ven-
.	.	.	8ee	-ti-
=48	=48	=48	=48	=48
4B-]	1r	.	4dd	-cel-
4A	.	.	4cc	-li
4G	.	.	8b-y	di-
.	.	.	8b-y	-ba-
4F	.	.	8a	-ten-
.	.	.	8a	-do
=49	=49	=49	=49	=49
2.E-X	8r	.	4g	l'a-
.	8g	E i	.	.
.	8b-y	ven-	4g	-li,
.	8a	-ti-	.	.
.	4g	-cel-	2r	.
4E-i	4g	-li	.	.
=50	=50	=50	=50	=50
4D	8f	di-	2r	.
.	8f	-ba-	.	.
4C	8e-X	-ten-	.	.
.	8e-i	-do	.	.
2BB-y	8dL	l'a-	4r	.
.	8e-iJ	.	.	.
.	8fL	.	8ff	di-
.	8dJ	.	8ff	-ba-
=51	=51	=51	=51	=51
2E-X	8gL	.	4.ee-X	-ten-
.	8aJ	.	.	.
.	2b-y	.	.	.
.	.	.	8cc	-do
2F	.	.	2cc	l'a-
.	4a	.	.	.
=52	=52	=52	=52	=52
2BB-y	1b-y	-li	2b-y	-li
2B-y	.	.	2r	.
=53	=53	=53	=53	=53
2G	2r	.	8d	Lu-
.	.	.	8d	-sin-
.	.	.	4.g	-ga-
2c	8g	Lu-	.	.
.	8g	-sin-	8e	-va-
.	[4cc	-ga-	4e	-no,
=54	=54	=54	=54	=54
2F	8cc]	.	8cc	<Lu-
.	8a	-va-	8cc	-sin-
.	4a	-no il	4.ff	-ga-
2D	4b-y	son-	.	.
.	.	.	8dd	-va-
.	4a	-no,	4dd	-no> il
=55	=55	=55	=55	=55
2G	4r	.	4ee-X	son-
.	4dd	il	4dd	-no
[2C	4ee-X	son-	4cc	de'
.	4dd	-no	4b-y	mor-
=56	=56	=56	=56	=56
2C]	4cc	de'	8aL	-ta-
.	.	.	8gJ	.
.	4b-y	mor-	2g	.
2D	2a	-ta-	.	.
.	.	.	4f#X	.
=57	=57	=57	=57	=57
4GG	8g	-li,	2g	-li,
.	8g	E i	.	.
2G	8b-y	ven-	.	.
.	8a	-ti-	.	.
.	4g	-cel-	2r	.
4F#i	4d	-li,	.	.
=58	=58	=58	=58	=58
4G	2r	.	8r	.
.	.	.	8dd	E i
4A	.	.	8ff	ven-
.	.	.	8ee	-ti-
[2B-y	8r	.	4dd	-cel-
.	8dd	<E i	.	.
.	8ff	ven-	4b-y	-li,
.	8ee	-ti-	.	.
=59	=59	=59	=59	=59
4B-]	4dd	-cel-	1r	.
4A	4cc	-li>	.	.
4G	8b-y	di-	.	.
.	8b-y	-ba-	.	.
4F	8a	-ten-	.	.
.	8a	-do	.	.
=60	=60	=60	=60	=60
2.E-X	4g	l'a-	8r	.
.	.	.	8g	E i
.	4g	-li,	8b-y	ven-
.	.	.	8a	-ti-
.	2r	.	4g	-cel-
4E-i	.	.	4g	-li
=61	=61	=61	=61	=61
4D	2r	.	8f	di-
.	.	.	8f	-ba-
4C	.	.	8e-X	-ten-
.	.	.	8e-i	-do
2BB-y	4r	.	8dL	l'a-
.	.	.	8e-iJ	.
.	8ff	bi-	8fL	.
.	8ff	-ba-	8dJ	.
=62	=62	=62	=62	=62
2E-X	4.ee-X	-ten-	8gL	.
.	.	.	8aJ	.
.	.	.	2b-y	.
.	8cc	-do	.	.
2F	2cc	l'a-	.	.
.	.	.	4a	.
=63	=63	=63	=63	=63
2BB-y	2b-y	-li	1b-y	-li
2B-y	2r	.	.	.
=64	=64	=64	=64	=64
2G	8d	Lu-	2r	.
.	8d	-sin-	.	.
.	4.g	-ga-	.	.
2c	.	.	8g	Lu-
.	8e	-va-	8g	-sin-
.	4e	-no,	[4cc	-ga-
=65	=65	=65	=65	=65
2F	8cc	<Lu-	8cc]	.
.	8cc	-sin-	8a	-va-
.	4.ff	-ga-	4a	-no il
2D	.	.	4b-y	son-
.	8dd	-va-	.	.
.	4dd	-no> il	4a	-no,
=66	=66	=66	=66	=66
2G	4ee-X	son-	4r	.
.	4dd	-no	4dd	il
[2C	4cc	de'	4ee-X	son-
.	4b-y	mor-	4dd	-no
=67	=67	=67	=67	=67
2C]	8aL	-ta-	4cc	de'
.	8gJ	.	.	.
.	2g	.	4b-y	mor-
2D	.	.	2a	-ta-
.	4f#X	.	.	.
=68	=68	=68	=68	=68
1GGl	1gl	-li.	1gl	-li.
==	==	==	==	==
*-	*-	*-	*-	*-
!!!system-decoration: [*]
!!!RDF**kern: i = editorial accidental
!!!RDF**kern: l = terminal long
!!!ENC: Emiliano Ricciardi
!!!END:
!!!EED: Ricciardi, Emiliano
!!!EEV: 2020/07/28
!!!YEC: Copyright 2018 Emiliano Ricciardi, All Rights Reserved
!!!ONB: Translated from MusicXML on 2020/07/28
!!@@BEGIN:	VERSEDATA
!!@CATALOGNUM:	Tsg14001
!!@LAST_MODIFIED: 2020/07/12
!!@TITLE:		Usciva omai dal molle e fresco grembo
!!@CANTO:		XIV
!!@OTTAVA:	1
!!@MANUSRC:	G-Al, G-Au, G-Br<sub>1</sub>, G-Br<sub>2</sub>, G-Es<sub>1</sub>, G-Es<sub>2</sub>, G-Es<sub>3</sub>, G-F, G-Fr, G-Fr<sub>1</sub>, G-Fr<sub>2</sub>, G-Mc<sub>1</sub>, G-Mg, G-Mr, G-Mt, G-N
!!@PRINTSRC:	G-1580CM, G-1581B, G-1581CV, G-1581R, G-1581MR, G-1581P, G-1581V, G-1581V<sub>bis</sub>, G-1582C, G-1582M, G-1582MC, G-1582P, G-1582SC, G-1582SC<sub>bis</sub>, G-1583S, G-1584O, G-1584S, G-1585C, G-1585S, G-1588S, G-1589S, G-1590B, G-1590S, G-1592S, G-1593S, G-1594C, G-1595C, G-1597C, G-1598C, G-1599C, G-1600C, G-1600S, G-1601C, G-1601R, G-1602C, G-1604C, G-1604Cl, G-1604F, G-1604P, G-1606B, G-1606B<sub>bis</sub>, G-1606L, G-1607ZR, G-1608DP, G-1609GC, G-1610M, G-1611S, G-1611V, G-1612P, G-1613M, G-1613P, G-1613V, G-1615P, G-1616M, G-1617P, G-1619B, G-1619V, G-1620M, G-1620S, G-1621R, G-1624I, G-1624MT, G-1625C, G-1625S, G-1625SS, G-1626C, G-1626Co, G-1627M, G-1628T, G-1628Tu, G-1630L, G-1630T, G-1632FT, G-1639CF, G-1642M, G-1643I, G-1644P, G-1644S
!!@@BEGIN:	VERSES
!!@ABOUTIT:
!!@ABOUTEN:
!!@EDITOR:	Angelo Solerti
!!@EDITION_TITLE: Gerusalemme liberata. Poema eroico di Torquato Tasso. Edizione critica sui manoscritti e le prime stampe.
!!@EDITION_LOC:	Florence
!!@EDITION_PUB:	G. Barbera
!!@EDITION_DATE:  1895
!!@EDITION_VOL:
!!@EDITION_PAGE:
!!@TRANSLATOR:	Emiliano Ricciardi
!!@VERSE:
!!	Usciva omai dal molle e fresco grembo
!!	Della gran madre sua la notte oscura;
!!	Aure lievi portando, e largo nembo
!!	Di sua rugiada preziosa e pura:
!!	E scuotendo del vel l’umido lembo
!!	Ne spargeva i fioretti e la verdura:
!!	E i venticelli, dibattendo l’ali,
!!	Lusingavano il sonno de’ mortali.
!!@MVERSE_DATE: 20230824
!!@MVERSE:
!!	Usciva omai dal molle e fresco grembo			=a
!!	Della gran madre sua la notte oscura;			=b
!!	Aure lievi portando, e largo nembo			=a
!!	Di sua rugiada preziosa e pura:				=b
!!	E scuotendo del vel l’umido lembo			=a
!!	Ne spargeva i fioretti e la verdura:			=b
!!	E i venticelli, dibattendo l’ali,			=c
!!	Lusingavano il sonno de’ mortali.			=c
!!@TVERSE:
!!	Already emerging from the soft and fresh hollow
!!	Of his great mother was the dark night;
!!	Bearing light breezes and a broad cloud
!!	Of its dew, precious and pure:
!!	And shaking the damp hem of the veil
!!	[The night] was scattering [droplets upon] little flowers and the verge:
!!	And the little winds, beating their wings,
!!	Were tempting the sleep from mortals.
!!@@END:		VERSES
!!@OTHER_CRIT_ED:  Torquato Tasso, <i>Gerusalemme liberata</i>, ed. Lanfranco Caretti, 2 vols. (Bari: Laterza, 1967).
!!@ATTRIBUTION_ABOUT:
!!@DATING:	mid-1560s through 1570s
!!@DEDICATEE:	Duke Alfonso II d'Este
!!@COMMENTARY:
!!@@END:		VERSEDATA
!!@@BEGIN: SETTING
!!@CATALOGNUM:	Tsg14001g
!!@CANTO:		XIV
!!@OTTAVA:	1
!!@TITLE:	Usciva omai dal molle e fresco grembo
!!@SETTINGTITLE: Usciva homai dal molle e fresco grembo
!!@COMPOSER:	Cifra, Antonio
!!@PARTS:		2 (verses 1-4; 5-8)
!!@PRINCEPSTITLE:	Li diversi scherzi a una, a due, a tre et quattro voci. Libro quarto
!!@PRINCEPSLOC:	Rome
!!@NORMLOC:	Rome
!!@NORMPUB:	Giovanni Battista Robletti
!!@NORMPUBSHORT:	Robletti
!!@PRINCEPSPUB:	Giovanni Battista Robletti
!!@PRINCEPSYEAR:	1615
!!@PRINCEPSRISM:	C 2219
!!@OVOICES:	2+bc
!!@EXTANTVOICES:	2+bc
!!@OMENSURATION:	C
!!@OCLEFS:	C1,C1,F4
!!@OTIME:		
!!@OKEYSIG:	b-
!!@FINAL:		(G)G
!!@TIMPEDITOR:	Ricciardi, Emiliano
!!@REPRINTS:	
!!@@END: SETTING
